material/.icons/material/smoking-pipe.svg

<svg xmlns="http://www.w3.org/2000/svg" viewBox="0 0 24 24"><path d="M4 7c-1.11 0-2 .89-2 2v4c0 2.21 1.79 4 4 4h2c3 0 4.28-.5 7.11-3.35l3.77-3.77C19.44 9.32 20.2 9 21 9h1V7h-1c-1.33 0-2.6.53-3.53 1.47l-3.77 3.76c-.7.69-1.7.77-2.7.77h-1V9c0-1.11-.89-2-2-2z"/></svg>

<?xml version="1.0" encoding="UTF-8"?><!DOCTYPE svg PUBLIC "-//W3C//DTD SVG 1.1//EN" "http://www.w3.org/Graphics/SVG/1.1/DTD/svg11.dtd"><svg xmlns="http://www.w3.org/2000/svg" xmlns:xlink="http://www.w3.org/1999/xlink" version="1.1" id="mdi-smoking-pipe" width="24" height="24" viewBox="0 0 24 24"><path d="M4 7C2.89 7 2 7.89 2 9V13C2 15.21 3.79 17 6 17H8C11 17 12.28 16.5 15.11 13.65L18.88 9.88C19.44 9.32 20.2 9 21 9H22V7H21C19.67 7 18.4 7.53 17.47 8.47L13.7 12.23C13 12.92 12 13 11 13H10V9C10 7.89 9.11 7 8 7Z" /></svg>
